X:1
T:Le Tambourin
T:Tambourin
T:Jean-Philippe Rameau
T:Suite in E minor, RCT 2
T:Public Domain
C:Jean-Philippe Rameau
Z:Public Domain
%%score { 1 | ( 2 3 ) }
L:1/8
Q:1/4=200
M:2/2
K:G
V:1 treble nm="Harpsichord" snm="Hch."
V:2 bass 
V:3 bass 
V:1
 EFGF | E2 B2 B2 A2 | PG2 F2 EFGA | B2 e2 P^d2 e2 | Pf4 EFGF | E2 B2 B2 A2 | PG2 F2 EFGA | %7
 B2 e2 ^defd | e4 || efgf | e2 B2 Pc2 B2 | Pc2 B2 efgf | e2 B2 Pc2 B2 | Pc2 B2 Pg2 e2 | %14
 Pc2 B2 Pg2 e2 | Pc2 B2 Pg2 e2 | Pc2 B2 A2 B2 | PG2 F2 EFGF | E2 B2 B2 A2 | PG2 F2 EFGA | %20
 B2 e2 P^d2 e2 | Pf4 EFGF | E2 B2 B2 A2 | PG2 F2 EFGA | B2 e2 ^defd | e2 B2 Pc2 B2 | %26
 ^A2 B2 PB2 =A2 | ^G2 A2 PA2 =G2 | F2 G2 PG2 F2 | E2 e2 EFGF | E2 B,2 B,2 B,2 | B,2 e2 EFGF | %32
 E2 B,2 B,2 B,2 | B,2 e2 EFGF | EFGA BAGF | EFGA BAGA | BAGA B2 AG | PF4 EFGF | E2 B2 B2 A2 | %39
 PG2 F2 EFGA | B2 e2 P^d2 e2 | Pf4 EFGF | E2 B2 B2 A2 | PG2 F2 EFGA | B2 e2 ^defd | e2 B2 Pg2 f2- | %46
 f2 B2 Pf2 e2- | e2 B2 Pg2 f2- | f2 B2 Pf2 e2- | e2 B2 Pe2 B2 | Pg2 B2 Pe2 B2 | b2 B2 Pe2 B2 | %52
 Pg2 B2 Pe2 B2 | b2 ag fgef | ^de^cd B=cAB | GAFG EFGF | EFGF EFGF | EFGF EFGA | B2 e2 P^d2 e2 | %59
 Pf4 EFGF | EFGA BcAB | GAFG EFGA | B2 e2 ^defd | e4 |] %64
V:2
 z4 | E,4 ^D,4 | E,4 z4 | E,4 F,2 E,2 | ^D,4 z4 | E,4 ^D,4 | E,4 z4 | E,4 F,4 | G,4 || z4 | %10
 E,4 ^D,4 | E,4 z4 | E,4 ^D,4 | E,4 z4 | E,4 z4 | E,4 z4 | E,4 ^D,4 | E,2 ^D,2 z4 | E,4 ^D,4 | %19
 E,4 z4 | E,4 F,2 E,2 | ^D,4 z4 | E,4 ^D,4 | E,4 z4 | E,4 F,4 | G,4 z4 | [E,,^C,E,]4 [E,,=C,^D,]4 | %27
 [E,,B,,=D,]4 [E,,A,,^C,]4 | [E,,A,,=C,]4 [E,,B,,^D,]4 | %29
 [E,,B,,E,]2 [E,G,B,]2 [E,G,B,]2 [E,G,B,]2 | [E,G,B,]2 E,,2 E,F,G,F, | %31
 E,2 [E,G,B,]2 [E,G,B,]2 [E,G,B,]2 | [E,G,B,]2 E,,2 E,F,G,F, | E,2 [E,G,B,]2 [E,G,B,]2 [E,G,B,]2 | %34
 [E,G,B,]4 [E,,B,,E,]4 | [E,,B,,E,]4 [E,,B,,E,]4 | [E,,B,,E,]4 [E,,B,,E,]4 | [E,,B,,^D,]4 z4 | %38
 E,4 ^D,4 | E,4 z4 | E,4 F,2 E,2 | ^D,4 z4 | E,4 ^D,4 | E,4 z4 | E,4 F,4 | G,2 z2 z4 | %46
 [E,,B,,^D,]4 z4 | [E,,B,,E,]4 z4 | [E,,B,,^D,]4 z4 | [E,,B,,E,]4 z4 | [E,,B,,E,]4 z4 | %51
 [E,,B,,E,]4 z4 | [E,,B,,E,]4 z4 | [E,,B,,E,]8- | [E,,B,,E,]8- | [E,,B,,E,]8- | [E,,B,,E,]8- | %57
 [E,,B,,E,]8 | E,4 F,2 E,2 | ^D,4 z4 | E,4 ^D,4 | E,4 z4 | E,4 F,4 | G,4 |] %64
V:3
 x4 | [E,,B,,]4 z4 | [E,,B,,]4 z4 | [E,,B,,]4 z4 | [E,,B,,]4 z4 | [E,,B,,]4 z4 | [E,,B,,]4 z4 | %7
 [E,,B,,]4 z4 | [E,,B,,]4 || x4 | [E,,B,,]4 z4 | [E,,B,,]4 z4 | [E,,B,,]4 z4 | [E,,B,,]4 z4 | %14
 [E,,B,,]4 z4 | [E,,B,,]4 z4 | [E,,B,,]4 z4 | [E,,B,,]4 z4 | [E,,B,,]4 z4 | [E,,B,,]4 z4 | %20
 [E,,B,,]4 z4 | [E,,B,,]4 z4 | [E,,B,,]4 z4 | [E,,B,,]4 z4 | [E,,B,,]4 z4 | [E,,B,,]4 z4 | x8 | %27
 x8 | x8 | x8 | x8 | x8 | x8 | x8 | x8 | x8 | x8 | x8 | [E,,B,,]4 z4 | [E,,B,,]4 z4 | %40
 [E,,B,,]4 z4 | [E,,B,,]4 z4 | [E,,B,,]4 z4 | [E,,B,,]4 z4 | [E,,B,,]4 z4 | [E,,B,,]2 x2 x4 | x8 | %47
 x8 | x8 | x8 | x8 | x8 | x8 | x8 | x8 | x8 | x8 | x8 | [E,,B,,]4 z4 | [E,,B,,]4 z4 | %60
 [E,,B,,]4 z4 | [E,,B,,]4 z4 | [E,,B,,]4 z4 | [E,,B,,]4 |] %64

